svgs/thin/h4.svg

<svg xmlns="http://www.w3.org/2000/svg" viewBox="0 0 640 512"><!--! Font Awesome Pro 6.3.0 by @fontawesome - https://fontawesome.com License - https://fontawesome.com/license (Commercial License) Copyright 2023 Fonticons, Inc. --><path d="M311.8 64C307.4 64 303.8 67.59 303.8 72V240h-287.8V72c0-4.406-3.576-8-7.995-8S0 67.59 0 72v368C0 444.4 3.576 448 7.995 448s7.995-3.594 7.995-8V256h287.8v184c0 4.406 3.576 8 7.995 8c4.419 0 7.995-3.594 7.995-8V72C319.8 67.59 316.2 64 311.8 64zM632 64C627.6 64 624 67.59 624 72V272h-222.5l39.47-198.4c.8588-4.344-1.952-8.531-6.277-9.406c-4.247-.7187-8.541 1.938-9.4 6.281l-41.38 208c-.4684 2.344 .1405 4.781 1.655 6.625C387.1 286.9 389.4 288 391.7 288h232.3v152c0 4.406 3.576 8 7.995 8C636.4 448 640 444.4 640 440V72C640 67.59 636.4 64 632 64z"/></svg>

<svg xmlns="http://www.w3.org/2000/svg" viewBox="0 0 640 512"><!-- Font Awesome Pro 6.0.0-alpha2 by @fontawesome - https://fontawesome.com License - https://fontawesome.com/license (Commercial License) --><path d="M311.794 64C307.376 64 303.8 67.594 303.8 72V240H15.989V72C15.989 67.594 12.414 64 7.995 64S0 67.594 0 72V440C0 444.406 3.576 448 7.995 448S15.989 444.406 15.989 440V256H303.8V440C303.8 444.406 307.376 448 311.794 448C316.213 448 319.789 444.406 319.789 440V72C319.789 67.594 316.213 64 311.794 64ZM632.005 64C627.586 64 624.011 67.594 624.011 72V272H401.485L440.959 73.562C441.818 69.219 439.007 65.031 434.682 64.156C430.435 63.438 426.141 66.094 425.282 70.438L383.903 278.438C383.435 280.781 384.044 283.219 385.558 285.062C387.073 286.938 389.353 288 391.742 288H624.011V440C624.011 444.406 627.586 448 632.005 448C636.424 448 640 444.406 640 440V72C640 67.594 636.424 64 632.005 64Z"/></svg>
